remix/Design/palette-line.svg

<svg viewBox="0 0 24 24" fill="currentColor" xmlns="http://www.w3.org/2000/svg"><path d="M12 2C17.5222 2 22 5.97778 22 10.8889C22 13.9556 19.5111 16.4444 16.4444 16.4444H14.4778C13.5556 16.4444 12.8111 17.1889 12.8111 18.1111C12.8111 18.5333 12.9778 18.9222 13.2333 19.2111C13.5 19.5111 13.6667 19.9 13.6667 20.3333C13.6667 21.2556 12.9 22 12 22C6.47778 22 2 17.5222 2 12C2 6.47778 6.47778 2 12 2ZM10.8111 18.1111C10.8111 16.0843 12.451 14.4444 14.4778 14.4444H16.4444C18.4065 14.4444 20 12.851 20 10.8889C20 7.1392 16.4677 4 12 4C7.58235 4 4 7.58235 4 12C4 16.19 7.2226 19.6285 11.324 19.9718C10.9948 19.4168 10.8111 18.7761 10.8111 18.1111ZM7.5 12C6.67157 12 6 11.3284 6 10.5C6 9.67157 6.67157 9 7.5 9C8.32843 9 9 9.67157 9 10.5C9 11.3284 8.32843 12 7.5 12ZM16.5 12C15.6716 12 15 11.3284 15 10.5C15 9.67157 15.6716 9 16.5 9C17.3284 9 18 9.67157 18 10.5C18 11.3284 17.3284 12 16.5 12ZM12 9C11.1716 9 10.5 8.32843 10.5 7.5C10.5 6.67157 11.1716 6 12 6C12.8284 6 13.5 6.67157 13.5 7.5C13.5 8.32843 12.8284 9 12 9Z"/></svg>

<svg viewBox="0 0 24 24" xmlns="http://www.w3.org/2000/svg"><path fill="none" d="M0 0h24v24H0Z"/><path d="M12 2c5.52 0 10 3.97 10 8.88h0c-.01 3.06-2.49 5.55-5.56 5.55h-1.97c-.93 0-1.67.74-1.67 1.66 0 .42.16.81.42 1.1 .26.3.43.68.43 1.12 0 .92-.77 1.66-1.67 1.66 -5.53 0-10-4.48-10-10 0-5.53 4.47-10 10-10Zm-1.189 16.11V18.1c-.01-2.03 1.63-3.67 3.66-3.67 0-.01 0-.01 0 0h1.96 0c1.96-.01 3.55-1.6 3.55-3.56 0-3.76-3.54-6.89-8-6.89v0c-4.42-.01-8.01 3.57-8.01 7.99 -.01 4.16 3.18 7.63 7.33 7.97v0c-.34-.57-.52-1.21-.52-1.86ZM7.5 11.99v0c-.83 0-1.5-.68-1.5-1.5 0-.83.67-1.5 1.5-1.5v0c.82 0 1.5.67 1.5 1.5 0 .82-.68 1.5-1.5 1.5Zm9 0v0c-.83 0-1.5-.68-1.5-1.5 0-.83.67-1.5 1.5-1.5v0c.82 0 1.5.67 1.5 1.5 0 .82-.68 1.5-1.5 1.5Zm-4.5-3v0c-.83 0-1.5-.68-1.5-1.5 0-.83.67-1.5 1.5-1.5v0c.82 0 1.5.67 1.5 1.5 0 .82-.68 1.5-1.5 1.5Z"/></svg>
